X:1
T:Six Studies in English Folk-Song
T:adapted for B♭ Clarinet and Piano
T:Ralph Vaughan Williams
T:I.  Lovely on the Water
T:II. Spurn Point
T:III. Van Dieman's Land
T:IV  She Borrowed Some of Her Mother's Gold
T:V  The Lady and the Dragon
T:Ralph Vaughan Williams
T:VI  As I Walked over London Bridge
%%score 1 { ( 2 4 6 ) | ( 3 5 ) }
L:1/8
Q:1/4=66
M:3/4
K:G
V:1 treble transpose=-2 nm="B♭ Clarinet" snm="B♭ Cl."
V:2 treble nm="Piano" snm="Pno."
V:4 treble 
V:6 treble 
V:3 bass 
V:5 bass 
V:1
[K:A]!p!"^Adagio""_cantabile" (F,>G, | A,F, B,2 A,F, | A,2!>(! F,4-) | %3
[M:4/4] F,6!>)!!<(! (F,G,!<)! |[M:3/4] A,B,!<(! C2 A2!<)! |!>(! F2{GF} E4-)!>)! | %6
[M:4/4]!<(! E6!<)! (A2 |[M:3/4] F2 E2 CA, | B,C E,4-) |[M:4/4] E,6!<(! (F,G, | %10
[M:3/4] A,B, C2!<)!!>(!{B,C} !tenuto!B,!tenuto!A,)!>)! |!>(! F,6-!>)! |!pp! F,6- | F,6- | %14
!<(! F,3 (G,!<)! A,C | A3!>(! G!>)! F2 | E4 ^D2 | C3) (E FG |!<(! (AB) c2!>(!{Bc} BA!<)!!>)! | %19
!<(! FGAc)!<)! (a2 | f2 e2 cA | Bc ECB,A, | B,CEF C2 | B,C E,2) (F,!<(!G, | A,2!<)! B,2 C2- | %25
!>(! C2{B,C} !tenuto!B,2!>)! !tenuto!A,2) |!pp! F,6- | F,6- | F,- z F,2 z2 | !fermata!z6 |] %30
[K:F][M:3/4][Q:1/4=80]"^Andante sostenuto" z6 | z6 | z2 z2!p!"_cantabile" (C2 | FG A2 (3GFE | %34
 DC D2) (3(DEF | GA G2 FD | !tenuto!C!tenuto!C !tenuto!C3) (C |!<(! Fc!<)! c2 (3AGF | %38
 !tenuto!B!tenuto!B!>(! !tenuto!A3) (F!>)! | GA/B/ c3 C |[M:4/4] (CF)!>(! (FG)!>)!!pp! F4-) | %41
[M:3/4] F6- | F4 (fe | d3 c BA |!<(! GA c d2 e)!<)! |!mf! (f"_cantabile"c' c'2 (3agf | %46
 !tenuto!b!tenuto!b!>(! a3) f!>)! | (ga/b/!>(! c'3 c!>)! |[M:4/4]!p! (cf) (fg) f3)!pp! (c | %49
 (cf) (fg)!>(! f4-) | f8- | f6-!>)! f z |][K:G][M:4/4][Q:1/4=58]"^Larghetto"!p! (E,3 F, G,B,DE | %53
 GBd!>(!e g3 b!>)! |!pp! b4-) b z!p! (B2 |"_cantabile" A2 B2 E2 F2 | G2 A2 d2 cB | A2 AG E2 D2) | %58
 E6!<(! (EF | G2 A2 B2 d!<)!B | (!tenuto!e2 !tenuto!e2 !tenuto!e2) d2 |!>(! B2 d2 B2!>)! A2 | %62
 B6) (EF |!<(! G2 A2!<)! B2 dB | (!tenuto!e2 !tenuto!e2 !tenuto!e2) (dB | d2)!>(! (d2 B2 A2)!>)! | %66
 B6) (B2 | A2 B2 E2 F2 | G2 A2 d2 (cB | A2) (AG E2 D2) |!>(! E8-)!>)! | E2!pp! (D2 GA B2 | %72
 e2 dc B2 AG | B3 A G2 E2 |!<(! G3 A B!<)!d) (g!mp!b | a2 b2 e2 f2 | %76
!<(! !tenuto!g2 !tenuto!a2!<)! !tenuto!d'2)!>(! (c'b!>)! |[M:3/2]"^=" a2 ag!>(! e4!>)! d4 | %78
!pp!!>(! e12-) | e!>)! x x2 |][K:A][M:4/4][Q:1/4=50]"^Lento" z2 | z8 | z8 | %83
 z4 z2!p!"_cantabile" (E2 | A3 F B2 c2 | BAGF E3) (E | A3 G!<(! F2!<)!!>(! dc!>)! | B6) (3(Bcd | %88
 e2 dc BAFE | d2 ed B3) ((A | BA) (!tenuto!d!tenuto!c) (BA F2-)) | F(B,!>(!D!>)!E F!pp!E ((A2 | %92
 A)F) (B3 F)(Ae) | a8-) | a4- a(fec | f6- fe | d3 c B3 A | (=G4) G)(ABe | f4-) f!<(!(ef!<)!a | %99
!<(! b!<)!a!>(!!tenuto!d'!>)!!tenuto!c' ba f2-) | f!<(!(e!<)!a!>(!g!>)! f!>(!ec!>)!A) | %101
!pp! (B3 F A3 F | B3 F A3 F) | (A!>(!Bdf (3a2 b2!>)! d'2) |!ppp! e'8- | !fermata!e'8 |] %106
[K:A][M:3/4]!p![Q:1/4=90]"^Andante tranquillo""_cantabile" (A4- A>B | c3 B dc | BA F2) A2 | %109
 (EA) !tenuto!A2- !tenuto!A2 | !tenuto!A4 (Ac | e2) (e2 f2) | (ec A2) (a2 | ec B2 A2 | B3 A) (Ac) | %115
 (e2 c2 f2) | (ec A2) (a2 | ec B2 A2) | A4 (A>B | c3 B dc | BA F2) (A2 | E2 A2) !tenuto!A2 | A6- | %123
 A3!p! (E AB | cBcB) (dc | BA) (FEFA | EA) (ABAB | AB AB)(Ac | ecBc) (ef | %129
 ec)!<(! (A!<)!B!>(!a!>)!g) | (3((fec) BcBA) | (cBAB) (Bc | ecBc) (ef | ec) (ABag) | %134
 (3((fec) BcBA |!>(! Bc!>)!B!<(!A- AB!<)! | cB!>(!cB) (dc | BA FEFA)!>)! | (EA) (A,B,A,B, | %139
!>(! A,B,A,B,A,B,) | (A,B,A,B,A,!>)!B, |!pp! A,B,A,B,A,B,) |!>(! (A,B,!>)!A,B,!ppp!A,B, | %143
 A,B,A,B,) (A,B, | C3 B, DC | B,A, F,2 A,2) | (E,2 A,2)!>(! !tenuto!A,2- | A,2!>)! !tenuto!A,4 | %148
!pppp! A6- | A z z4 |][K:D][M:2/4][Q:1/4=140]"^Allegro vivace" z2 z!p! (d/"_leggiero"e/ | %151
 .f).f.e.f | .d(B/A/ B)(d/e/ | .f).d .e.f/(d/ | B/c/) !tenuto!d2 (d/e/ | .f).d.e.f | %156
 (d/B/A/F/ .A).B | .A.F.F.A |[M:2/4]!<(! (B/c/)!<)!!>(!!tenuto!d-!>)! |[M:2/4]!pp! .d.B .A.F | %160
 .^G.F.B,.F | .A,.F.^G.F | .B,.D.A,.F | .^G.F.B,.F | .A,.F.^G.F | .B,.F.A,.F | %166
[M:2/4]!<(! .B/.c/.d/!<)!.e/ |[M:2/4]!f!"_marcato" .f.f.e.f | d(B/A/ B).d/.e/ | .f.d .e.f/.d/ | %170
 (B/c/).d D (d/e/) | .f.d.e.f | (d/B/A/F/) .A.B | .A.F.F.A |[M:2/4]!<(! (B/c/d/e/)!<)! | %175
[M:2/4]!ff! !tenuto!f2 !tenuto!a2 | !tenuto!f3 !tenuto!e | !tenuto!f2 !tenuto!e2 | %178
 !tenuto!B3 !tenuto!A | !tenuto!F2 !tenuto!B2 |"_dim." !tenuto!e3 !tenuto!d | %181
 !tenuto!c2 !tenuto!f2 | (b3 a) | (c'3 b) | (d'2-!>(! d'/c'/b/a/)!>)! |!pp!"_cantabile" (^g4 | %186
 (3(f2 ^g2 b2) | ^g4) | (3(f2 c2 B2) | (f4 | (3(f2 c2 B2) | (3(c2 B2 ^G2)) | (F4- | F2 ^G2- | %194
 G2 E2) | (F4 | ^G4 |!>(! B4)!>)! |!ppp! (d/"_senza rall."B/A/F/ .A).B | .A.F .F.A | %200
 (B/c/.d) D z |] %201
V:2
 z2 | z6 | z6!pp! |[M:4/4][K:treble] (GB de gb) b2 |[M:3/4] z6 | z6!pp! | %6
[M:4/4] (G_B d e g(_b) b2) |[M:3/4] z6 | z2!pp! z2[K:bass] (D,E, |[M:4/4] G,A,_B,D- DE G2) | %10
[M:3/4][K:treble] z6 |!p! [GBe][A^cf][Bdg][cea] [dfb]2 | ([^cea][Bdg] [cea]2 [Bdg][GBe]) | %13
 ([Bdg]2 [GBe]2 [GBe][A^cf] |!<(! [Bdg][^cea] [dfb]2 [bd'g']2)!<)! | %15
!>(! ([_be']2{[d'f'][be']} [g-d']2)!>)! [gg']2 |!>(! [ee']2 [d_d']2!>)!!pp! e2 | d2 d2 ^c2 | %18
!pp! B6 | z6 | z6 | z6 | z6 | z6 | z6 | z6 | z6 | x x GBde | gb d'2 !tenuto!e'2- | !fermata!e'6 |] %30
[K:Eb][M:3/4][K:treble]!pp! z2!<(! (eb!<)! b2 | (3gfe aa!>(! g2- | g2)!>)! g4 | z2!p! z (eag | %34
 fe agfe) | (a!<(!gce ab!<)! | [ac'][gb])!>(! ([gb][fa]) ([gb][fa])!>)! | %37
 ([eg][df] [ce][df][eg][df] | [ce][df] [eg][df][eg][fa]) | ([gb][fa]) ([fa][eg]) ([eg][df]) | %40
[M:4/4] ([fa][eg])([eg][df])!<(! (Be)(ef)!<)! |[M:3/4]!mf! (e"_cantabile"f g2 (3[Ff][Ee][Dd] | %42
 cB c2) (3([Cc][Dd][Ee] | [Ff][Gg] [Ff]2 B2) | !tenuto!B!tenuto!B!>(! B3 B!>)! | %45
!p! [B,EB]4 [EGe]2 | (ed c4) | ([CA]2!>(! [DB]4)!>)! |[M:4/4]!pp! c2 (Be) (!tenuto!e!tenuto!f) e2 | %49
 [Ee]4- [Ee] z!>(! z2 | z4!>)! z2[K:bass] [G,B,]2- | [G,B,]2 [G,B,]6 |][K:F][M:4/4][K:treble] z8 | %53
 z8 | z4 z2!p! (D2 | C2 A,2 F2 C2 | B,2 CD E2 D2) | (C2 [B,D][CE] [DF][EG][FA][EG] | %58
 [DF]6) ([A,D]2 | [DF]2 E2 D2 E2 | F2 G2 F2 E2 | D2 E2 D2 [DG]2) | [FA]6 (FE) | (D2 ED CDEC) | %64
 (F2 G2 F2 GA | [CE]2 FE!<(! DC!<)!!>(!ED)!>)! | x4 E2- E2 | (=B,2 C2 F2 E2 | DCDE FEDC) | %69
 (D3 (c c)BAG | FE!<(!DE!<)! FA!mp!de) |"_cantabile" (f2 g2 a2!<(! c'a!<)! | %72
 !tenuto!d'2 !tenuto!d'2 !tenuto!d'2 c'a) |!>(! e2 f2!>)! d4 |!>(! [fa]6!>)!!pp! d2 | (d2 c4 B2) | %76
!<(! (A2 d2)!<)! e2 dc |[M:3/2] (B3 B!>(! F4!>)! E4) | [^F,A,D]12- | [F,A,D] x x2 |] %80
[K:G][M:4/4][K:treble]!pp! (G2 | c3 A [Fd]4) | d3 A (c3 A) | d6- dA | (c3 A [Fd]4) | (c3 A [Fd]4) | %86
 (cEGA cega) | ([fd']3 A) [Ge]4 | (d3 A) x4 | [A=f]4 x4 | [^fd']4 ((((ag))))(!tenuto!c'!tenuto!b) | %91
!>(! aged!>)!!pp! (c3 A | d3 A c!<(!Acd)!<)! |!mf!"_cantabile" ([Gg]3 [Ee] [Aa]2 [Bb]2 | %94
 B4 [EG]4) |!<(! (g3 f!<)!!>(! e2 c'b!>)! | [c=fa]6) (3(abc') | (d'2 c'b aged) | %98
!<(!!<(! (c'2!<)!!<)!!>(! d'c'!>)! [cea]4-) | [cea]2 [cea]4 [cea]2- | [cea]4 z4 | %101
 z!pp! x x3 x [EG]2- | dA c3 A d2- | d4 z4 | z8!ppp! | Adfa !fermata!d'4 |][K:G][M:3/4] z6 | %107
!p! ([DGB]6 | [EGc]6 | [DGB]4 [CGA]2 | [DGB]4) [EGB]2 | ([DGB]4 [EGB]2 | [DGB]4 [EGc]2 | %113
 [DGB]2 [CEA]2 [B,EG]2 | [CEA]4) [CEG]2 | ([DGB]4 [EGB]2 | [DF]2 [EG]2 [EGc]2 | %117
 [DFB]2 [CEA]2 [CEG]2 | [B,EG]4 [CEG]2) | [DGB]6 | [CGA]6 | [DGB]4 [EGA]2 | ([DGB]4 [EGA]2 | %123
 [B,DG]4 [A,EG]2) |!pp! ([DGB]4 [EGA]2- | [EGA]2 [B,EG]4) | ([DGB]2 [EGA]4 | [DGB]4 [EG]2) | %128
 ([DFd]4 [DGd]2- | [DGd]2 [EGc]4) | ([EB]2 [EA]4 | [DB]4 [Gc]2) | ([DFd]4 [EGd]2- | %133
 [EGd]2 [EGc]4) | ([EB]2 [EA]4 | [DB]4 [Gc]2) | ([DGB]4 [EGA]2- | [EGA]2 [B,EG]4) | ([DGB]2 [EA]4 | %139
!<(! [DB]4!<)! [Gc]2) |!mf! (d"_cantabile"BABde) | (d!<(!B- B!<)!!>(!A gf)!>)! | %142
 (3(edB) (A3!>(! [GB] | [EA]3 [GB]!>)!!ppp! [EA]2) | [EGB]6 | [EA]6 |[K:bass] (G,A,G,A,G,A, | %147
 G,A,G,A,G,A,) | z2!ppp! [D,G,B,]4- | [D,G,B,] z z4 |] %150
[K:C][M:2/4][K:treble]!p! .[Ace].[Ace] .[Ace].[Ace] | .[Ace].[Ace] .[Ace].[Ace] | %152
 .[Ace].[Ace] .[Ace].[Ace] | .[Ace].[Ace] .[Ace].[Ace] | .[Ace].[Ace] .[Ace].[Ace] | %155
 .[Ace].[Ace] .[Ace].[Ace] | .[Ace].[Ace] .[Ace].[Ace] | .[Ace] z z2 | %158
[M:2/4]!pp! (f/!<(!g/a/b/)!<)! |[M:2/4]!>(! .e'.e'!>)!!p!.d'.e' | .c'.a/.g/ .a.c'/.d'/ | %161
 .e'.c' .d'(e'/c'/ | a/b/) !tenuto!c'2 (c'/d'/ | .e').c'.d'.e' | (c'/a/g/e/ .g).a | .g.e .e.g | %166
[M:2/4]!<(! (a/b/c'/d'/)!<)! |[M:2/4]!f! ([ac'e']2 [bd'g']2 | [ac'e']3 [fad']) | ([egc']2 [gbd']2 | %170
 [cfa]3 [ceg] | [GBe]2 [cfa]2 | [fac'])!tenuto!b !tenuto!c'!tenuto!a | .b.g .g.e |[M:2/4] .e.c | %175
[M:2/4]!ff! !tenuto!A2 !tenuto![Bdg]2 | !tenuto![Ace]3 !tenuto![GBd] | %177
 !tenuto![Ace]2 !tenuto![GBd]2 | !tenuto![CFA]3 !tenuto![B,EA] | !tenuto![G,CE]2 !tenuto![CFA]2 | %180
 [^FBd]3 [EAc] | [DGB]2 [Gce]2 | [cfa]3 [Beg] | [dgb]3 [cfa] |!>(! [eac']3!>)! [^fbd'] | %185
!p! [gc'e']d' e'e' | c'a/g/ ac'/d'/ | (e'e' d'e'/c'/ | a/b/) c'2 (c'/d'/ | e'c' d'e' | %190
 c'/a/g/!>(!e/) (g2- | g/e/d/B/) d2-!>)! | (3dBA!>(! d2- | d!>)! B2 A | z4 | z4 | z4 | z4 | z4 | %199
 z4 |[K:bass] z2!pp! !wedge!C, z |] %201
V:3
 z2 | z6 | z2!ped! (E,,B,,E,G,!ped-up! |[M:4/4]!>(! B,D E4)!>)! z2 |[M:3/4] z6 | %5
 z2!ped! (G,,B,,G,_B,!ped-up! |[M:4/4][K:treble] DE G4)[K:bass] z2 |[M:3/4] z6 | %8
 z2!ped! (_B,,,=F,,^A,,(D,!ped-up! |[M:4/4] D, E,2) G, _B,4) |[M:3/4] z6 | z6 | z6 | %13
!ped! (E,,B,, .E,(G, G,2))!ped-up! | (E,,B,, E,(G, G,2)) | (G,,D,G,A, _B,D | %16
[K:treble] EG A_B =B2) | (AB D2 ^C2 |[K:bass] B,6) | z6 | z6 | z6 | z6 | z6 | z6 | z6 | %26
 z!ped! E,, B,,E, G,B,!ped-up! | DE x x x2 | z6 | z6 |][K:Eb][M:3/4][K:bass] [G,CE]6- | %31
 [G,CE]2 ([G,CE]4 | [A,CE]4 [B,D]2) | z2[K:treble] (edcB) | (AG cBAG) | (cBAB cd) | e2 d4 | c2 B4 | %38
 AB c4 | (c2 B4) |[M:4/4][K:bass] B,4 [A,,E,C]4 |[M:3/4] z F G2 x2 | z B, C2 x2 | %43
 [F,,C,A,]4 [G,,E,C]2 | B,B, B,3 B, | [G,,C,E,]4 [G,,B,,G,]2 | ([F,,C,A,]2 [C,,G,,E,]4) | %47
 ([F,,C,]2 [G,,D,]4) |[M:4/4]!ped! x4 B,E x2 | [A,,E,C]4- [A,,E,C] A,,,E,,A,, | %50
 C,E,A,C!ped-up! z2!ped! [E,,B,,E,]2- | [E,,B,,E,]2 [E,,B,,E,]6!ped-up! |][K:F][M:4/4][K:bass] z8 | %53
 z8 | z4 z2 (F,2 | E,2 C,2 D,2 A,,2 | D,2 E,2 A,2 G,F,) | (E,2 G,,A,, B,,2 F,,2 | D,,8) | %59
 A,2 G,2 F,2 G,2 | (A,2 B,2 A,2 G,2 | [D,F,]2 G,2 F,2 [B,,E,]2) | (D,3 E, F,G,A,G,) | %63
 D,2 x2 x2 x2 | ([D,A,]2 [G,B,]2 [D,A,]2 x x | A,3 G, F,2 G,2) | E,4 x4 | (E,2 A,,2 D,2 _B,,2) | %68
 A,,2 G,,2 F,,2 G,,A,, | B,,C,B,,A,, G,,2 A,,2 | (A,G,F,G, A,2)[K:treble] (FG | D2 C2 FG A2 | %72
 d2 cB A2 GF) | (c4 A2 B2) | [Fc]6 [DF]2 | [EG]4 [DF]4 |[K:bass] (C2 B,2 A,3 F,) | %77
[M:3/2] (G,,3 A,, B,,2 G,,2 A,,4) | [D,,A,,D,]12- | [D,,A,,D,] x x2 |][K:G][M:4/4][K:bass] z2 | %81
!ped! [E,G,A,C]4!ped-up!!ped! (D,,A,,D,F, | %82
 A,[I:staff -1]DF!ped-up!A)!ped![I:staff +1] [E,G,A,C]4!ped-up! | %83
!ped! (D,,A,,D,F, A,[I:staff -1]DFA)!ped-up! | %84
[I:staff +1][K:bass]!ped! [E,G,A,C]4!ped-up!!ped! (D,,A,,D,F,)!ped-up! | %85
!ped! [E,G,A,C]4!ped-up!!ped! (D,,A,,D,F,)!ped-up! |!ped! [E,G,A,C]8!ped-up! | %87
!ped! (D,,A,,D,F,)!ped-up!!ped! [A,,E,C]4!ped-up! | %88
!ped! (D,,A,,D,F,)!ped-up!!ped! [A,,E,C]4!ped-up! | %89
!ped! (3(=F,,C,=F, (3A,[I:staff -1]CD (3=FAc (3=fac')!ped-up! | %90
!ped![I:staff +1] (3(D,,A,,D, (3F,A,D)!ped-up!!ped! [E,G,A,C]4!ped-up! | x x x2 z2 z2 | %92
 z2 [E,G,A,C]4 [E,G,A,C]2 |!ped! (3(C,,G,,C, (3E,G,C) [A,,E,C]4!ped-up! | %94
!ped! (3(E,,B,,E,- (3E,G,B,) (3z (B,G, (3E,B,,E,,)!ped-up! | (3z (C,,G,, (3C,E,G, C4) | %96
!ped! (3(F,,C,=F, (3A,C=F)[K:treble] A4!ped-up! |[K:bass]!ped! (3(D,,A,,D, (3=D,A,D- D4)!ped-up! | %98
[K:bass]!ped! (3(A,,E,A, (3CEA) z4 | z8 | z8!ped-up! | %101
!ped! z2[K:bass] (E,G,A,C)!ped-up!!ped! (D,,A,, | D,G, C4)!>(! (D,,A,, | D,G,!>)! C6)!ped-up! | %104
 z!ped! (D,,A,,D, F,A,!>(![I:staff -1]DF | Adfa!>)! d'4)!ped-up! |][K:G][M:3/4][I:staff +1] z6 | %107
 (G,,2 B,2 D,2) | (C,,2 E,2 G,,2) | (D,2 G,,2 E,2) | (D,2 G,,2 E,2) | (D,2 G,,2 C,2) | %112
 (D,2 G,,2 C,2) | (G,,2 A,,2 E,2) | (A,,2 C,2 E,2) | (D,2 G,,2 E,2) | (B,,2 E,2 A,,2) | %117
 (B,,2 C,2 A,,2) | (E,,2 B,,2) [C,,G,,E,]2 | (G,,2 B,2 D,2) | (C,,2 E,2 G,,2) | (D,2 G,,2 C,2) | %122
 (D,2 G,,2 C,2) | (D,2 G,,2 C,2) | ([G,,D,]4 [C,,G,,]2- | [C,,G,,]2 [E,,B,,]4) | %126
 ([G,,D,]2 [C,G,]4 | [D,G,]4 [E,G,]2) | ([B,,F,B,]4 [E,G,]2- | [E,G,]2 [A,,E,G,]4) | %130
 ([E,G,]2 [C,G,]4 | [D,B,]4 [E,C]2) | ([B,,F,B,]4 [E,G,]2- | [E,G,]2 [A,,E,G,]4) | %134
 ([E,G,]2 [C,G,]4 | [D,B,]4 [E,C]2) | ([G,,D,]4 [C,,G,,E,]2- | [C,,G,,E,]2 [E,,B,,G,]4) | %138
 ([G,,D,]2 [C,G,]4 | [D,G,]4 [E,G,]2) | [G,,D,B,]2 z2 [C,,G,,E,]2 | [E,,B,,G,]2 z2 [A,,E,C]2 | %142
 G,2 G,3 E, | G,3 E, G,2 | [E,,B,,G,]6 | [C,,G,,E,]6 | [D,,G,,]4 [E,,B,,]2- | E,,D,, C,,4 | %148
 z2 [G,,,D,,G,,]4- | [G,,,D,,G,,] z z4 |][K:C][M:2/4]"^leggiero" z4 | z4 | z4 | z4 | z4 | z4 | z4 | %157
 z4 |[M:2/4] (A,/B,/C/D/ |[M:2/4][K:] G) G2"^cantabile" G- | G G2 G- | G G2 G- | G G2 G- | %163
 G G2 G- | G G2 G- | G G2 G- |[M:2/4] G/F/E/D/ |[M:2/4][K:bass] A,[A,,E,] z [G,,D,G,] | %168
 z [A,,E,A,] z [F,,C,F,] | z [C,,G,,C,] z [G,,D,G,] | z [F,,C,F,] z [C,,G,,C,] | %171
 z [E,,B,,E,] z [D,,A,,D,] | z [G,,D,B,] z [F,,C,A,] | z [E,,B,,G,] z [C,,G,,E,] | %174
[M:2/4] z [E,,E,] |[M:2/4] .[A,,E,A,].[B,,B,] .[A,,A,][B,,B,] | %176
 .[A,,E,A,].[B,,B,] .[A,,A,].[B,,B,] | .[A,,E,A,].[B,,B,] .[A,,A,].[B,,B,] | %178
 .[A,,E,].B,, .A,,.B,, | .[A,,E,].B,, .A,,.B,, |"^dim." .A,.B, .A,.B, | .A,.B, .A,.B, | %182
 .A,.B, .A,.B, | .A,.B, .A,.B, | .A,.B, (A,/B,/C/D/) |[K:treble]"^cantabile" !//-!E2 ^F2 | %186
 !//-!E2 ^F2 | !//-!E2 ^F2 | !//-!E2 ^F2 | (!//-!E2 ^F2 | !//-!E2 ^F2 | !//-!E2 ^F2 | %192
 (3E^FE (3EFE |!ppp! E4) | z4 | z4 | z4 | z4 | z4 | z4 | z z !wedge![CG] z |] %201
V:4
 x2 | x6 | x6 |[M:4/4][K:treble] x8 |[M:3/4] x6 | x6 |[M:4/4] x8 |[M:3/4] x6 | x4[K:bass] x2 | %9
[M:4/4] x8 |[M:3/4][K:treble] x6 | x6 | x6 | x6 | x6 | x6 | _b4 =bg | a x b x3 | x6 | x6 | x6 | %21
 x6 | x6 | x6 | x6 | x6 | x6 | x6 | x6 | x6 |][K:Eb][M:3/4][K:treble] x6 | x6 | x6 | x6 | x6 | x6 | %36
 x6 | x6 | x6 | x6 |[M:4/4] x4 G3 A |[M:3/4] G6 | E6 | A4 x2 | D4 [CE]2 | x6 | F2 E4 | x6 | %48
[M:4/4] [CE]4- [CE]4 | x8 | x6[K:bass] x2 | x8 |][K:F][M:4/4][K:treble] x8 | x8 | x8 | x8 | x8 | %57
 x8 | x8 | x8 | x8 | x8 | x8 | x8 | x2 x2 x2 C2 | C2 C2 x4 | (C3 D x2 C2) | x2 x2 A3 G | %68
 G2 B2 A2 GF | x4 F2 E2 | x8 | x2 e2 f2 e2 | fbag f2 ed | c'2 c'2 a2 g2 | x8 | x8 | (E3 G) G2 FE | %77
[M:3/2] D4 C2 B,2 A,2 G,2 | z12 | x4 |][K:G][M:4/4][K:treble] x2 | x8 | x8 | F6 x2 | x8 | x8 | x8 | %87
 x8 | F4 [Ge]4 | x8 | x8 | x8 | x8 | [ce]4 e4 | ag e2 d3 d | x8 | x8 | [d=f]4 x4 | x8 | x8 | x8 | %101
 x (A c3 A d2) | [EG]2 z2 z2 [EG]2- | [EG]2 x6 | x8 | x8 |][K:G][M:3/4] x6 | x6 | x6 | x6 | x6 | %111
 x6 | x6 | x6 | x6 | x6 | B4 x2 | x6 | x6 | x6 | x6 | x6 | x6 | x6 | x6 | x6 | x6 | x6 | x6 | x6 | %130
 x6 | x6 | x6 | x6 | x6 | x6 | x6 | x6 | x6 | x6 | x6 | x6 | x6 | x6 | x6 | x6 |[K:bass] C4 B,2- | %147
 B,2 C4 | x6 | x6 |][K:C][M:2/4][K:treble] x4 | x4 | x4 | x4 | x4 | x4 | x4 | x4 |[M:2/4] x2 | %159
[M:2/4] x4 | x4 | x4 | x4 | x4 | x4 | x4 |[M:2/4] x2 |[M:2/4] x4 | x4 | x4 | x4 | x4 | x4 | x4 | %174
[M:2/4] x2 |[M:2/4] x4 | x4 | x4 | x4 | x4 | x4 | x4 | x4 | x4 | x4 | x4 | x4 | x4 | x4 | x4 | x4 | %191
 x4 | x4 | x4 | x4 | x4 | x4 | x4 | x4 | x4 |[K:bass] x4 |] %201
V:5
 x2 | x6 | x6 |[M:4/4] x8 |[M:3/4] x6 | x6 |[M:4/4][K:treble] x6[K:bass] x2 |[M:3/4] x6 | x6 | %9
[M:4/4] x8 |[M:3/4] x6 | x6 | x6 | x6 | x6 | x6 |[K:treble] x6 | x6 |[K:bass] x6 | x6 | x6 | x6 | %22
 x6 | x6 | x6 | x6 | x6 | x6 | x6 | x6 |][K:Eb][M:3/4][K:bass] x6 | x6 | x6 | x2[K:treble] x4 | %34
 x6 | x6 | x6 | x6 | x6 | x6 |[M:4/4][K:bass] x8 |[M:3/4] [E,,B,,G,]6 | [A,,,G,,E,]6 | x6 | %44
 [B,,F,]4 [A,,E,]2 | x6 | x6 | x6 |[M:4/4] [A,,E,A,]4- [A,,E,A,]2 [A,,E,C]2 | x8 | x8 | x8 |] %52
[K:F][M:4/4][K:bass] x8 | x8 | x8 | x8 | x8 | x8 | z2 z (A,, D,E,F,G,) | D,8- | (D,4 D,4- | %61
 x2 D,4 x2) | (D,6 D,2) | (F,2 C,2 F,2 A,2) | x4 x2 E,F, | x2 x2 F,2 C,2 | (A,,4- A,,=B,,C,D,) | %67
 x8 | x8 | x8 | D,6[K:treble] D2 | A2 c2 c2 c2 | d4 d2 x2 | A3 G F2 D2 | x8 | x8 |[K:bass] x8 | %77
[M:3/2] x12 | x12 | x4 |][K:G][M:4/4][K:bass] x2 | x8 | z4 x4 | x8 |[K:bass] x8 | x8 | x8 | x8 | %88
 x8 | x8 | x8 | (3(D,,A,,D, (3F,A,D) x2 [E,G,A,C]2- | [E,G,A,C]2 x6 | x8 | x8 | x8 | %96
 x4[K:treble] x4 |[K:bass] x8 |[K:bass] x8 | x8 | x8 | x2[K:bass] E,2 z4 | x8 | x8 | x8 | x8 |] %106
[K:G][M:3/4] x6 | x6 | x6 | x6 | x6 | x6 | x6 | x6 | x6 | x6 | x6 | x6 | x6 | x6 | x6 | x6 | x6 | %123
 x6 | x6 | x6 | x6 | x6 | x6 | x6 | x6 | x6 | x6 | x6 | x6 | x6 | x6 | x6 | x6 | x6 | x6 | x6 | %142
 [E,,B,,]2 C,4 | C,4 C,2 | x6 | x6 | x6 | B,,2 [G,,E,]4 | x6 | x6 |][K:C][M:2/4] x4 | x4 | x4 | %153
 x4 | x4 | x4 | x4 | x4 |[M:2/4] x2 |[M:2/4][K:] x4 | x4 | x4 | x4 | x4 | x4 | x4 |[M:2/4] x2 | %167
[M:2/4][K:bass] x4 | x4 | x4 | x4 | x4 | x4 | x4 |[M:2/4] x2 |[M:2/4] x4 | x4 | x4 | x4 | x4 | x4 | %181
 x4 | x4 | x4 | x4 |[K:treble] x4 | x4 | x4 | x4 | x4 | x4 | x4 | x4 | x4 | x4 | x4 | x4 | x4 | %198
 x4 | x4 | x4 |] %201
V:6
 x2 | x6 | x6 |[M:4/4][K:treble] x8 |[M:3/4] x6 | x6 |[M:4/4] x8 |[M:3/4] x6 | x4[K:bass] x2 | %9
[M:4/4] x8 |[M:3/4][K:treble] x6 | x6 | x6 | x6 | x6 | x6 | x6 | x6 | x6 | x6 | x6 | x6 | x6 | x6 | %24
 x6 | x6 | x6 | x6 | x6 | x6 |][K:Eb][M:3/4][K:treble] x6 | x6 | x6 | x6 | x6 | x6 | x6 | x6 | x6 | %39
 x6 |[M:4/4] x8 |[M:3/4] x6 | x6 | x6 | x6 | x6 | x6 | x6 | %48
[M:4/4] x x x x x x (!tenuto!E!tenuto!F) | x8 | x6[K:bass] x2 | x8 |][K:F][M:4/4][K:treble] x8 | %53
 x8 | x8 | x8 | x8 | x8 | x8 | x8 | x8 | x8 | x8 | x8 | x8 | x8 | x8 | x8 | x8 | x8 | x8 | x8 | %72
 x8 | x8 | x8 | x8 | x8 |[M:3/2] x12 | x12 | x4 |][K:G][M:4/4][K:treble] x2 | x8 | x8 | x8 | x8 | %85
 x8 | x8 | x8 | x8 | x8 | x8 | x8 | x8 | x8 | x8 | x8 | x8 | x8 | x8 | x8 | x8 | x8 | x8 | x8 | %104
 x8 | x8 |][K:G][M:3/4] x6 | x6 | x6 | x6 | x6 | x6 | x6 | x6 | x6 | x6 | x6 | x6 | x6 | x6 | x6 | %121
 x6 | x6 | x6 | x6 | x6 | x6 | x6 | x6 | x6 | x6 | x6 | x6 | x6 | x6 | x6 | x6 | x6 | x6 | x6 | %140
 x6 | x6 | x6 | x6 | x6 | x6 |[K:bass] x6 | x6 | x6 | x6 |][K:C][M:2/4][K:treble] x4 | x4 | x4 | %153
 x4 | x4 | x4 | x4 | x4 |[M:2/4] x2 |[M:2/4] x4 | x4 | x4 | x4 | x4 | x4 | x4 |[M:2/4] x2 | %167
[M:2/4] x4 | x4 | x4 | x4 | x4 | x4 | x4 |[M:2/4] x2 |[M:2/4] x4 | x4 | x4 | x4 | x4 | x4 | x4 | %182
 x4 | x4 | x4 | x4 | x4 | x4 | x4 | x4 | x4 | x4 | x4 | x4 | x4 | x4 | x4 | x4 | x4 | x4 | %200
[K:bass] x4 |] %201

